icons/tag-arrow-up.svg

<svg xmlns="http://www.w3.org/2000/svg" width="24" height="24" viewBox="0 0 24 24">
  <path d="M13,2 C13.2652165,2 13.5195704,2.10535684 13.7071068,2.29289322 L13.7071068,2.29289322 L21.2928932,9.87867966 C22.4644661,11.0502525 22.4644661,12.9497475 21.2928932,14.1213203 L21.2928932,14.1213203 L14.1213203,21.2928932 C12.9497475,22.4644661 11.0502525,22.4644661 9.87867966,21.2928932 L9.87867966,21.2928932 L2.29289322,13.7071068 C2.10535684,13.5195704 2,13.2652165 2,13 L2,13 L2,5 C2,3.34314575 3.34314575,2 5,2 L5,2 Z M12,8 L11.980824,8.00018018 L11.9409686,8.0017331 C11.9308872,8.00232561 11.9208131,8.00307004 11.909968,8.00399798 L11.909968,8.00399798 L11.8515331,8.0110178 C11.834051,8.01362808 11.8166247,8.01670217 11.7992059,8.02016515 C11.7772539,8.0246398 11.7555635,8.02983363 11.734007,8.03584514 C11.7185367,8.04009773 11.7031487,8.04472872 11.6882636,8.04954668 C11.6682023,8.05612249 11.6484208,8.06331574 11.628664,8.07122549 L11.628664,8.07122549 L11.5769009,8.09365378 C11.5561086,8.10337664 11.5357061,8.11379392 11.5159379,8.12467117 L11.5159379,8.12467117 L11.4793398,8.14606743 C11.453725,8.1617187 11.4288693,8.17849009 11.4046934,8.19633458 L11.4046934,8.19633458 L11.38,8.215 L11.37,8.224 L11.2928932,8.29289322 L8.29289322,11.2928932 L8.20970461,11.3871006 C7.90467972,11.7793918 7.93240926,12.3466228 8.29289322,12.7071068 C8.68341751,13.0976311 9.31658249,13.0976311 9.70710678,12.7071068 L9.70710678,12.7071068 L11,11.415 L11,15 L11.0067277,15.1166211 C11.0644928,15.6139598 11.4871642,16 12,16 C12.5522847,16 13,15.5522847 13,15 L13,15 L13,11.415 L14.2928932,12.7071068 L14.3871006,12.7902954 C14.7793918,13.0953203 15.3466228,13.0675907 15.7071068,12.7071068 C16.0976311,12.3165825 16.0976311,11.6834175 15.7071068,11.2928932 L15.7071068,11.2928932 L12.7071068,8.29289322 L12.625449,8.21968877 C12.6225624,8.2173721 12.6196628,8.21507113 12.6128994,8.20970461 C12.6070733,8.20517454 12.6012086,8.20071786 12.5951593,8.19631351 C12.5711307,8.17849009 12.546275,8.1617187 12.5207088,8.14599545 C12.5086131,8.13860692 12.4963944,8.13149883 12.484277,8.12487577 C12.4642939,8.11379392 12.4438914,8.10337664 12.4232215,8.09367336 L12.4232215,8.09367336 L12.3710585,8.07110396 C12.3515792,8.06331574 12.3317977,8.05612249 12.3121425,8.04973809 C12.2968513,8.04472872 12.2814633,8.04009773 12.2658396,8.03572097 C12.2444365,8.02983363 12.2227461,8.0246398 12.2007258,8.02024007 C12.1833753,8.01670217 12.165949,8.01362808 12.1489612,8.01101934 L12.1489612,8.01101934 L12.081,8.003 L12.03,8.001 L12.019,8.001 L12,8 L12,8 Z"/>
</svg>

<svg xmlns="http://www.w3.org/2000/svg" viewBox="0 0 24 24">
  <path d="M13 2a1 1 0 0 1 .7.3l7.6 7.58a3 3 0 0 1 0 4.24l-7.18 7.17a3 3 0 0 1-4.24 0l-7.59-7.58A1 1 0 0 1 2 13V5a3 3 0 0 1 3-3zm-1 6h-.09l-.06.01a1.1 1.1 0 0 0-.22.06l-.05.02-.06.03-.04.03-.08.05-.02.02h-.01l-.08.07-3 3-.08.1a1 1 0 0 0 1.5 1.32L11 11.4v3.71a1 1 0 0 0 2-.12V11.4l1.3 1.3.09.08a1 1 0 0 0 1.32-1.5l-3-3-.08-.07a3.01 3.01 0 0 0-.15-.1 1.02 1.02 0 0 0-.06-.03l-.05-.02a.95.95 0 0 0-.22-.06H12z"/>
</svg>
